build/Karasa-Jaga/scalable/apps/facebook-symbolic.svg

<svg height="16" width="16" xmlns="http://www.w3.org/2000/svg"><path d="m2.875 1c-1.0341288 0-1.875.8408712-1.875 1.875v10.25c0 1.034129.8408712 1.875 1.875 1.875h10.25c1.034129 0 1.875-.840871 1.875-1.875v-10.25c0-1.0341288-.840871-1.875-1.875-1.875zm8.1875 2.03125c.286876.0153942.606058.0642826.9375.09375v1.875c-1-.2975824-1.51604-.2574754-1.71875 0-.202709.2574754-.281253.5065358-.28125 1h2v2h-2v5h-2v-5h-2v-2h2v-.5c-.0000009-.9500404.2807034-1.3062156.8125-1.78125.7163404-.6299437 1.389371-.7336827 2.25-.6875z" fill="#bebebe"/></svg>

<?xml version="1.0" encoding="UTF-8" standalone="no"?>
<!-- Created with Inkscape (http://www.inkscape.org/) -->

<svg
   xmlns:dc="http://purl.org/dc/elements/1.1/"
   xmlns:cc="http://creativecommons.org/ns#"
   xmlns:rdf="http://www.w3.org/1999/02/22-rdf-syntax-ns#"
   xmlns:svg="http://www.w3.org/2000/svg"
   xmlns="http://www.w3.org/2000/svg"
   xmlns:inkscape="http://www.inkscape.org/namespaces/inkscape"
   version="1.1"
   width="16"
   height="16"
   id="svg7384">
  <title
     id="title9167">Gnome Symbolic Icon Theme</title>
  <defs
     id="defs11" />
  <metadata
     id="metadata90">
    <rdf:RDF>
      <cc:Work
         rdf:about="">
        <dc:format>image/svg+xml</dc:format>
        <dc:type
           rdf:resource="http://purl.org/dc/dcmitype/StillImage" />
        <dc:title>Gnome Symbolic Icon Theme</dc:title>
      </cc:Work>
    </rdf:RDF>
  </metadata>
  <path
     d="M 2.875,1 C 1.8408712,1 1,1.8408712 1,2.875 l 0,10.25 C 1,14.159129 1.8408712,15 2.875,15 l 10.25,0 C 14.159129,15 15,14.159129 15,13.125 L 15,2.875 C 15,1.8408712 14.159129,1 13.125,1 L 2.875,1 z m 8.1875,2.03125 C 11.349376,3.0466442 11.668558,3.0955326 12,3.125 L 12,5 C 11,4.7024176 10.48396,4.7425246 10.28125,5 10.078541,5.2574754 9.999997,5.5065358 10,6 l 2,0 0,2 -2,0 0,5 L 8,13 8,8 6,8 6,6 8,6 8,5.5 c -9e-7,-0.9500404 0.2807034,-1.3062156 0.8125,-1.78125 0.7163404,-0.6299437 1.389371,-0.7336827 2.25,-0.6875 z"
     inkscape:connector-curvature="0"
     id="rect5505-3"
     style="color:#bebebe;fill:#bebebe;fill-opacity:1;fill-rule:nonzero;stroke:none;stroke-width:1;marker:none;visibility:visible;display:inline;overflow:visible;enable-background:accumulate" />
</svg>
